X: 3242
T: Behind The Bush In The Garden
R: jig
M: 6/8
K: Aminor
|:B|c2A AGE|c2A AGE|c2E EDE|{E}G3 GzA|
c2d e2a|age ded|c2A AGE|{E}A3 A2:|
|:B|c2A c2d|e2=f e2d|c2A c2d|e2 z G3|
c2d e2a|{b}age ded|c2A AGE|{E} [A3A2] [AA,]z:|

